Olanzapine.svg

<?xml version="1.0" encoding="UTF-8"?><svg xmlns="http://www.w3.org/2000/svg" xmlns:xlink="http://www.w3.org/1999/xlink" width="203pt" height="213pt" viewBox="0 0 203 213"><g transform="translate(85.1465, 176.952)" style="fill:#161413; fill-rule:evenodd; stroke:none; stroke-width:0; stroke-linecap:butt; stroke-linejoin:miter; stroke-dasharray:none;"><path d="M12.3525 0C12.3525 0 10.4453 0 10.4453 0C10.4453 0 10.4453 12.916 10.4453 12.916C10.4453 12.916 2.1894 0 2.1894 0C2.1894 0 0 0 0 0C0 0 0 15.798 0 15.798C0 15.798 1.9072 15.798 1.9072 15.798C1.9072 15.798 1.9072 2.991 1.9072 2.991C1.9072 2.991 10.0771 15.798 10.0771 15.798C10.0771 15.798 12.3525 15.798 12.3525 15.798C12.3525 15.798 12.3525 0 12.3525 0Z"/></g><g transform="translate(85.2988, 194.952)" style="fill:#161413; fill-rule:evenodd; stroke:none; stroke-width:0; stroke-linecap:butt; stroke-linejoin:miter; stroke-dasharray:none;"><path d="M10.1416 8.604C10.1416 8.604 10.1416 15.798 10.1416 15.798C10.1416 15.798 12.1563 15.798 12.1563 15.798C12.1563 15.798 12.1563 0 12.1563 0C12.1563 0 10.1416 0 10.1416 0C10.1416 0 10.1416 6.826 10.1416 6.826C10.1416 6.826 2.0147 6.826 2.0147 6.826C2.0147 6.826 2.0147 0 2.0147 0C2.0147 0 0 0 0 0C0 0 0 15.798 0 15.798C0 15.798 2.0371 15.798 2.0371 15.798C2.0371 15.798 2.0371 8.604 2.0371 8.604C2.0371 8.604 10.1416 8.604 10.1416 8.604Z"/></g><g transform="translate(69.3965, 108.452)" style="fill:#161413; fill-rule:evenodd; stroke:none; stroke-width:0; stroke-linecap:butt; stroke-linejoin:miter; stroke-dasharray:none;"><path d="M12.3525 0C12.3525 0 10.4453 0 10.4453 0C10.4453 0 10.4453 12.916 10.4453 12.916C10.4453 12.916 2.1894 0 2.1894 0C2.1894 0 0 0 0 0C0 0 0 15.798 0 15.798C0 15.798 1.9072 15.798 1.9072 15.798C1.9072 15.798 1.9072 2.991 1.9072 2.991C1.9072 2.991 10.0771 15.798 10.0771 15.798C10.0771 15.798 12.3525 15.798 12.3525 15.798C12.3525 15.798 12.3525 0 12.3525 0Z"/></g><g transform="translate(101.8, 170.15)" style="fill:#161413; fill-rule:nonzero; stroke:none; stroke-width:1.3; stroke-linecap:butt; stroke-linejoin:miter; stroke-dasharray:none;"><path d="M17.05 0C17.05 0 17.6 0.4 17.6 0.4C17.6 0.4 17.6 1.15 17.6 1.15C17.6 1.15 0.55 9.4 0.55 9.4C0.55 9.4 0 8.2 0 8.2C0 8.2 17.05 0 17.05 0Z"/></g><g transform="translate(118.85, 140.15)" style="fill:#161413; fill-rule:nonzero; stroke:none; stroke-width:1.3; stroke-linecap:butt; stroke-linejoin:miter; stroke-dasharray:none;"><path d="M6.8 0.15C6.8 0.15 7.5 0 7.5 0C7.5 0 8 0.6 8 0.6C8 0.6 1.3 30.1 1.3 30.1C1.3 30.1 0.55 30.4 0.55 30.4C0.55 30.4 0 30 0 30C0 30 6.8 0.15 6.8 0.15Z"/></g><g transform="translate(113.9, 141.4)" style="fill:#161413; fill-rule:nonzero; stroke:none; stroke-width:1.3; stroke-linecap:butt; stroke-linejoin:miter; stroke-dasharray:none;"><path d="M5.7 0C5.7 0 7 0.3 7 0.3C7 0.3 1.25 25.45 1.25 25.45C1.25 25.45 0 25.15 0 25.15C0 25.15 5.7 0 5.7 0Z"/></g><g transform="translate(106.55, 115.7)" style="fill:#161413; fill-rule:nonzero; stroke:none; stroke-width:1.3; stroke-linecap:butt; stroke-linejoin:miter; stroke-dasharray:none;"><path d="M0 0.7C0 0.7 0.3 0.05 0.3 0.05C0.3 0.05 1.05 0 1.05 0C1.05 0 20.05 23.75 20.05 23.75C20.05 23.75 19.8 24.45 19.8 24.45C19.8 24.45 19.1 24.6 19.1 24.6C19.1 24.6 0 0.7 0 0.7Z"/></g><g transform="translate(85.2002, 115.1)" style="fill:#161413; fill-rule:nonzero; stroke:none; stroke-width:1.3; stroke-linecap:butt; stroke-linejoin:miter; stroke-dasharray:none;"><path d="M0 1.35C0 1.35 0 0.05 0 0.05C0 0.05 21.2498 0 21.2498 0C21.2498 0 21.6498 0.65 21.6498 0.65C21.6498 0.65 21.3498 1.3 21.3498 1.3C21.3498 1.3 0 1.35 0 1.35Z"/></g><g transform="translate(85.2002, 120.75)" style="fill:#161413; fill-rule:nonzero; stroke:none; stroke-width:1.3; stroke-linecap:butt; stroke-linejoin:miter; stroke-dasharray:none;"><path d="M0 1.3C0 1.3 0 0 0 0C0 0 18.9498 0 18.9498 0C18.9498 0 18.9498 1.3 18.9498 1.3C18.9498 1.3 0 1.3 0 1.3Z"/></g><g transform="translate(56, 126.3)" style="fill:#161413; fill-rule:nonzero; stroke:none; stroke-width:1.3; stroke-linecap:butt; stroke-linejoin:miter; stroke-dasharray:none;"><path d="M0.9004 14.05C0.9004 14.05 0.2002 13.9 0.2002 13.9C0.2002 13.9 0 13.15 0 13.15C0 13.15 10.4502 0 10.4502 0C10.4502 0 11.4502 0.85 11.4502 0.85C11.4502 0.85 0.9004 14.05 0.9004 14.05Z"/></g><g transform="translate(55.6504, 140.2)" style="fill:#161413; fill-rule:nonzero; stroke:none; stroke-width:1.3; stroke-linecap:butt; stroke-linejoin:miter; stroke-dasharray:none;"><path d="M8.0996 30C8.0996 30 7.5498 30.45 7.5498 30.45C7.5498 30.45 6.7998 30.2 6.7998 30.2C6.7998 30.2 0 0.55 0 0.55C0 0.55 0.5498 0 0.5498 0C0.5498 0 1.25 0.15 1.25 0.15C1.25 0.15 8.0996 30 8.0996 30Z"/></g><g transform="translate(50.8496, 144.5)" style="fill:#161413; fill-rule:nonzero; stroke:none; stroke-width:1.3; stroke-linecap:butt; stroke-linejoin:miter; stroke-dasharray:none;"><path d="M6.75 24.1C6.75 24.1 5.5 24.35 5.5 24.35C5.5 24.35 0 0.3 0 0.3C0 0.3 1.25 0 1.25 0C1.25 0 6.75 24.1 6.75 24.1Z"/></g><g transform="translate(63.2002, 170.2)" style="fill:#161413; fill-rule:nonzero; stroke:none; stroke-width:1.3; stroke-linecap:butt; stroke-linejoin:miter; stroke-dasharray:none;"><path d="M17.5498 8.15C17.5498 8.15 17 9.3 17 9.3C17 9.3 0.0996 1.2 0.0996 1.2C0.0996 1.2 0 0.45 0 0.45C0 0.45 0.5498 0 0.5498 0C0.5498 0 17.5498 8.15 17.5498 8.15Z"/></g><g transform="translate(26.2002, 130.3)" style="fill:#161413; fill-rule:nonzero; stroke:none; stroke-width:1.3; stroke-linecap:butt; stroke-linejoin:miter; stroke-dasharray:none;"><path d="M0.3496 1.5C0.3496 1.5 0 0 0 0C0 0 29.7998 9.15 29.7998 9.15C29.7998 9.15 30 9.9 30 9.9C30 9.9 29.4502 10.45 29.4502 10.45C29.4502 10.45 0.3496 1.5 0.3496 1.5Z"/></g><g transform="translate(2.7998, 130.3)" style="fill:#161413; fill-rule:nonzero; stroke:none; stroke-width:1.3; stroke-linecap:butt; stroke-linejoin:miter; stroke-dasharray:none;"><path d="M1.4502 22.2C1.4502 22.2 0 21.75 0 21.75C0 21.75 23.4004 0 23.4004 0C23.4004 0 23.75 1.5 23.75 1.5C23.75 1.5 1.4502 22.2 1.4502 22.2Z"/></g><g transform="translate(9.2998, 136.9)" style="fill:#161413; fill-rule:nonzero; stroke:none; stroke-width:1.3; stroke-linecap:butt; stroke-linejoin:miter; stroke-dasharray:none;"><path d="M0.9004 17.75C0.9004 17.75 0 16.8 0 16.8C0 16.8 18.1006 0 18.1006 0C18.1006 0 19 0.95 19 0.95C19 0.95 0.9004 17.75 0.9004 17.75Z"/></g><g transform="translate(2.7998, 152.05)" style="fill:#161413; fill-rule:nonzero; stroke:none; stroke-width:1.3; stroke-linecap:butt; stroke-linejoin:miter; stroke-dasharray:none;"><path d="M8.25 30.15C8.25 30.15 7.1504 31.15 7.1504 31.15C7.1504 31.15 0 0 0 0C0 0 1.4502 0.45 1.4502 0.45C1.4502 0.45 8.25 30.15 8.25 30.15Z"/></g><g transform="translate(9.9502, 182.2)" style="fill:#161413; fill-rule:nonzero; stroke:none; stroke-width:1.3; stroke-linecap:butt; stroke-linejoin:miter; stroke-dasharray:none;"><path d="M30.2002 8.95C30.2002 8.95 30.5498 10.4 30.5498 10.4C30.5498 10.4 0 1 0 1C0 1 1.0996 0 1.0996 0C1.0996 0 30.2002 8.95 30.2002 8.95Z"/></g><g transform="translate(15.0498, 177.65)" style="fill:#161413; fill-rule:nonzero; stroke:none; stroke-width:1.3; stroke-linecap:butt; stroke-linejoin:miter; stroke-dasharray:none;"><path d="M24.0498 7.3C24.0498 7.3 23.6504 8.55 23.6504 8.55C23.6504 8.55 0 1.25 0 1.25C0 1.25 0.4004 0 0.4004 0C0.4004 0 24.0498 7.3 24.0498 7.3Z"/></g><g transform="translate(40.1504, 170.4)" style="fill:#161413; fill-rule:nonzero; stroke:none; stroke-width:1.3; stroke-linecap:butt; stroke-linejoin:miter; stroke-dasharray:none;"><path d="M22.2998 0C22.2998 0 23.0498 0.25 23.0498 0.25C23.0498 0.25 23.1494 1 23.1494 1C23.1494 1 0.3496 22.2 0.3496 22.2C0.3496 22.2 0 20.75 0 20.75C0 20.75 22.2998 0 22.2998 0Z"/></g><g transform="translate(140.04, 178.942)" style="fill:#161413; fill-rule:evenodd; stroke:none; stroke-width:1.3; stroke-linecap:butt; stroke-linejoin:miter; stroke-dasharray:none;"><path d="M11.875 4.898C11.854 1.799 9.73 0 6.09 0C2.622 0 0.477 1.778 0.477 4.638C0.477 6.567 1.495 7.78 3.575 8.322C3.575 8.322 7.498 9.362 7.498 9.362C9.491 9.882 10.401 10.684 10.401 11.919C10.401 12.764 9.946 13.631 9.274 14.108C8.647 14.541 7.649 14.78 6.371 14.78C4.659 14.78 3.489 14.368 2.731 13.457C2.146 12.764 1.886 12.005 1.907 11.031C1.907 11.031 0 11.031 0 11.031C0.022 12.483 0.304 13.436 0.932 14.303C2.016 15.777 3.836 16.556 6.241 16.556C8.126 16.556 9.665 16.123 10.684 15.343C11.745 14.497 12.417 13.089 12.417 11.724C12.417 9.774 11.203 8.343 9.059 7.758C9.059 7.758 5.093 6.697 5.093 6.697C3.186 6.176 2.492 5.57 2.492 4.356C2.492 2.752 3.9 1.691 6.024 1.691C8.538 1.691 9.946 2.839 9.969 4.898C9.969 4.898 11.875 4.898 11.875 4.898Z"/></g><g transform="translate(119.4, 170.25)" style="fill:#161413; fill-rule:nonzero; stroke:none; stroke-width:1.3; stroke-linecap:butt; stroke-linejoin:miter; stroke-dasharray:none;"><path d="M18.15 10.4C18.15 10.4 17.5 11.5 17.5 11.5C17.5 11.5 0 1.05 0 1.05C0 1.05 0 0.3 0 0.3C0 0.3 0.75 0 0.75 0C0.75 0 18.15 10.4 18.15 10.4Z"/></g><g transform="translate(153.65, 165.8)" style="fill:#161413; fill-rule:nonzero; stroke:none; stroke-width:1.3; stroke-linecap:butt; stroke-linejoin:miter; stroke-dasharray:none;"><path d="M15.25 0C15.25 0 16.05 0.2 16.05 0.2C16.05 0.2 16.25 0.9 16.25 0.9C16.25 0.9 0.9 14.35 0.9 14.35C0.9 14.35 0 13.35 0 13.35C0 13.35 15.25 0 15.25 0Z"/></g><g transform="translate(157, 136.65)" style="fill:#161413; fill-rule:nonzero; stroke:none; stroke-width:1.3; stroke-linecap:butt; stroke-linejoin:miter; stroke-dasharray:none;"><path d="M0 1.35C0 1.35 0.8 0 0.8 0C0.8 0 13.15 28.8 13.15 28.8C13.15 28.8 12.7 29.35 12.7 29.35C12.7 29.35 11.9 29.15 11.9 29.15C11.9 29.15 0 1.35 0 1.35Z"/></g><g transform="translate(153.25, 143.05)" style="fill:#161413; fill-rule:nonzero; stroke:none; stroke-width:1.3; stroke-linecap:butt; stroke-linejoin:miter; stroke-dasharray:none;"><path d="M0 0.5C0 0.5 1.2 0 1.2 0C1.2 0 10.3 21.15 10.3 21.15C10.3 21.15 9.1 21.65 9.1 21.65C9.1 21.65 0 0.5 0 0.5Z"/></g><g transform="translate(126.35, 136.65)" style="fill:#161413; fill-rule:nonzero; stroke:none; stroke-width:1.3; stroke-linecap:butt; stroke-linejoin:miter; stroke-dasharray:none;"><path d="M0.5 4.1C0.5 4.1 0 3.5 0 3.5C0 3.5 0.25 2.8 0.25 2.8C0.25 2.8 31.45 0 31.45 0C31.45 0 30.65 1.35 30.65 1.35C30.65 1.35 0.5 4.1 0.5 4.1Z"/></g><g transform="translate(169.7, 165.45)" style="fill:#161413; fill-rule:nonzero; stroke:none; stroke-width:1.3; stroke-linecap:butt; stroke-linejoin:miter; stroke-dasharray:none;"><path d="M30.55 6.85C30.55 6.85 30.3 8.1 30.3 8.1C30.3 8.1 0.2 1.25 0.2 1.25C0.2 1.25 0 0.55 0 0.55C0 0.55 0.45 0 0.45 0C0.45 0 30.55 6.85 30.55 6.85Z"/></g><g transform="translate(114.146, 80.4521)" style="fill:#161413; fill-rule:evenodd; stroke:none; stroke-width:1.3; stroke-linecap:butt; stroke-linejoin:miter; stroke-dasharray:none;"><path d="M12.353 0C12.353 0 10.446 0 10.446 0C10.446 0 10.446 12.9161 10.446 12.9161C10.446 12.9161 2.19 0 2.19 0C2.19 0 0 0 0 0C0 0 0 15.7979 0 15.7979C0 15.7979 1.908 15.7979 1.908 15.7979C1.908 15.7979 1.908 2.9913 1.908 2.9913C1.908 2.9913 10.078 15.7979 10.078 15.7979C10.078 15.7979 12.353 15.7979 12.353 15.7979C12.353 15.7979 12.353 0 12.353 0Z"/></g><g transform="translate(106.45, 99.8496)" style="fill:#161413; fill-rule:nonzero; stroke:none; stroke-width:1.3; stroke-linecap:butt; stroke-linejoin:miter; stroke-dasharray:none;"><path d="M7.35 0C7.35 0 8.5 0.5504 8.5 0.5504C8.5 0.5504 1.15 15.8504 1.15 15.8504C1.15 15.8504 0.4 15.9004 0.4 15.9004C0.4 15.9004 0 15.2504 0 15.2504C0 15.2504 7.35 0 7.35 0Z"/></g><g transform="translate(141.146, 24.2021)" style="fill:#161413; fill-rule:evenodd; stroke:none; stroke-width:1.3; stroke-linecap:butt; stroke-linejoin:miter; stroke-dasharray:none;"><path d="M12.353 0C12.353 0 10.446 0 10.446 0C10.446 0 10.446 12.9161 10.446 12.9161C10.446 12.9161 2.19 0 2.19 0C2.19 0 0 0 0 0C0 0 0 15.7979 0 15.7979C0 15.7979 1.908 15.7979 1.908 15.7979C1.908 15.7979 1.908 2.9913 1.908 2.9913C1.908 2.9913 10.078 15.7979 10.078 15.7979C10.078 15.7979 12.353 15.7979 12.353 15.7979C12.353 15.7979 12.353 0 12.353 0Z"/></g><g transform="translate(129.85, 84.7002)" style="fill:#161413; fill-rule:nonzero; stroke:none; stroke-width:1.3; stroke-linecap:butt; stroke-linejoin:miter; stroke-dasharray:none;"><path d="M21.2 0C21.2 0 22.05 1.2002 22.05 1.2002C22.05 1.2002 0.1 3.5996 0.1 3.5996C0.1 3.5996 0 2.2998 0 2.2998C0 2.2998 21.2 0 21.2 0Z"/></g><g transform="translate(151.05, 57.0996)" style="fill:#161413; fill-rule:nonzero; stroke:none; stroke-width:1.3; stroke-linecap:butt; stroke-linejoin:miter; stroke-dasharray:none;"><path d="M13.2 0.1006C13.2 0.1006 14.7 0 14.7 0C14.7 0 0.85 28.8008 0.85 28.8008C0.85 28.8008 0 27.6006 0 27.6006C0 27.6006 13.2 0.1006 13.2 0.1006Z"/></g><g transform="translate(154.7, 42.5498)" style="fill:#161413; fill-rule:nonzero; stroke:none; stroke-width:1.3; stroke-linecap:butt; stroke-linejoin:miter; stroke-dasharray:none;"><path d="M0 0.75C0 0.75 1.1 0 1.1 0C1.1 0 11.05 14.5498 11.05 14.5498C11.05 14.5498 9.55 14.6504 9.55 14.6504C9.55 14.6504 0 0.75 0 0.75Z"/></g><g transform="translate(115.85, 30.75)" style="fill:#161413; fill-rule:nonzero; stroke:none; stroke-width:1.3; stroke-linecap:butt; stroke-linejoin:miter; stroke-dasharray:none;"><path d="M0.85 3.5996C0.85 3.5996 0 2.4004 0 2.4004C0 2.4004 21.85 0 21.85 0C21.85 0 22 1.2998 22 1.2998C22 1.2998 0.85 3.5996 0.85 3.5996Z"/></g><g transform="translate(102, 33.1504)" style="fill:#161413; fill-rule:nonzero; stroke:none; stroke-width:1.3; stroke-linecap:butt; stroke-linejoin:miter; stroke-dasharray:none;"><path d="M1.5 28.6494C1.5 28.6494 0 28.7998 0 28.7998C0 28.7998 13.85 0 13.85 0C13.85 0 14.7 1.1992 14.7 1.1992C14.7 1.1992 1.5 28.6494 1.5 28.6494Z"/></g><g transform="translate(102, 61.7998)" style="fill:#161413; fill-rule:nonzero; stroke:none; stroke-width:1.3; stroke-linecap:butt; stroke-linejoin:miter; stroke-dasharray:none;"><path d="M11.75 15C11.75 15 10.65 15.75 10.65 15.75C10.65 15.75 0 0.1504 0 0.1504C0 0.1504 1.5 0 1.5 0C1.5 0 11.75 15 11.75 15Z"/></g><g transform="translate(152.15, 3)" style="fill:#161413; fill-rule:nonzero; stroke:none; stroke-width:1.3; stroke-linecap:butt; stroke-linejoin:miter; stroke-dasharray:none;"><path d="M8.15 0C8.15 0 9.35 0.5498 9.35 0.5498C9.35 0.5498 1.2 17.5 1.2 17.5C1.2 17.5 0 16.9502 0 16.9502C0 16.9502 8.15 0 8.15 0Z"/></g></svg>

<?xml version="1.0"?>
<svg xmlns:rdf="http://www.w3.org/1999/02/22-rdf-syntax-ns#" xmlns="http://www.w3.org/2000/svg" xmlns:cc="http://web.resource.org/cc/" xmlns:xlink="http://www.w3.org/1999/xlink" xmlns:dc="http://purl.org/dc/elements/1.1/" height="213pt" width="203pt" viewBox="0 0 203 213">
 <g fill="#161413" transform="translate(85.146 176.95)" fill-rule="evenodd">
  <path d="m12.352 0h-1.907v12.916l-8.2556-12.916h-2.1894v15.798h1.9072v-12.807l8.1698 12.807h2.275v-15.798z"/>
 </g>
 <g fill="#161413" transform="translate(85.299 194.95)" fill-rule="evenodd">
  <path d="m10.142 8.604v7.194h2.014v-15.798h-2.014v6.826h-8.1273v-6.826h-2.0147v15.798h2.0371v-7.194h8.1049z"/>
 </g>
 <g fill="#161413" transform="translate(69.396 108.45)" fill-rule="evenodd">
  <path d="m12.352 0h-1.907v12.916l-8.2556-12.916h-2.1894v15.798h1.9072v-12.807l8.1698 12.807h2.275v-15.798z"/>
 </g>
 <g fill="#161413" transform="translate(101.8 170.15)">
  <path d="m17.05 0l0.55 0.4v0.75l-17.05 8.25-0.55-1.2 17.05-8.2z"/>
 </g>
 <g fill="#161413" transform="translate(118.85 140.15)">
  <path d="m6.8 0.15l0.7-0.15 0.5 0.6-6.7 29.5-0.75 0.3-0.55-0.4 6.8-29.85z"/>
 </g>
 <g fill="#161413" transform="translate(113.9 141.4)">
  <path d="m5.7 0l1.3 0.3-5.75 25.15-1.25-0.3 5.7-25.15z"/>
 </g>
 <g fill="#161413" transform="translate(106.55 115.7)">
  <path d="m0 0.7s0.3-0.65 0.3-0.65l0.75-0.05 19 23.75-0.25 0.7-0.7 0.15-19.1-23.9z"/>
 </g>
 <g fill="#161413" transform="translate(85.2 115.1)">
  <path d="m0 1.35v-1.3s21.25-0.05 21.25-0.05l0.4 0.65s-0.3 0.65-0.3 0.65l-21.35 0.05z"/>
 </g>
 <g fill="#161413" transform="translate(85.2 120.75)">
  <path d="m0 1.3v-1.3h18.95v1.3h-18.95z"/>
 </g>
 <g fill="#161413" transform="translate(56 126.3)">
  <path d="m0.9004 14.05l-0.7002-0.15s-0.2002-0.75-0.2002-0.75l10.45-13.15 1 0.85-10.55 13.2z"/>
 </g>
 <g fill="#161413" transform="translate(55.65 140.2)">
  <path d="m8.0996 30l-0.5498 0.45-0.75-0.25-6.7998-29.65s0.5498-0.55 0.5498-0.55l0.7002 0.15 6.8496 29.85z"/>
 </g>
 <g fill="#161413" transform="translate(50.85 144.5)">
  <path d="m6.75 24.1l-1.25 0.25-5.5-24.05 1.25-0.3 5.5 24.1z"/>
 </g>
 <g fill="#161413" transform="translate(63.2 170.2)">
  <path d="m17.55 8.15l-0.55 1.15-16.9-8.1c-0.0004 0-0.1-0.75-0.1-0.75l0.5498-0.45 17 8.15z"/>
 </g>
 <g fill="#161413" transform="translate(26.2 130.3)">
  <path d="m0.3496 1.5l-0.3496-1.5s29.8 9.15 29.8 9.15l0.2 0.75-0.55 0.55-29.1-8.95z"/>
 </g>
 <g fill="#161413" transform="translate(2.7998 130.3)">
  <path d="m1.4502 22.2l-1.4502-0.45 23.4-21.75 0.35 1.5-22.3 20.7z"/>
 </g>
 <g fill="#161413" transform="translate(9.2998 136.9)">
  <path d="m0.9004 17.75s-0.9004-0.95-0.9004-0.95l18.101-16.8s0.899 0.95 0.899 0.95l-18.1 16.8z"/>
 </g>
 <g fill="#161413" transform="translate(2.7998 152.05)">
  <path d="m8.25 30.15l-1.0996 1-7.1504-31.15 1.4502 0.45 6.7998 29.7z"/>
 </g>
 <g fill="#161413" transform="translate(9.9502 182.2)">
  <path d="m30.2 8.95l0.35 1.45s-30.55-9.4-30.55-9.4l1.0996-1 29.1 8.95z"/>
 </g>
 <g fill="#161413" transform="translate(15.05 177.65)">
  <path d="m24.05 7.3l-0.4 1.25-23.65-7.3 0.4004-1.25 23.65 7.3z"/>
 </g>
 <g fill="#161413" transform="translate(40.15 170.4)">
  <path d="m22.3 0l0.75 0.25 0.099 0.75-22.799 21.2c-0.0004 0-0.35-1.45-0.35-1.45l22.3-20.75z"/>
 </g>
 <g fill="#161413" transform="translate(140.04 178.94)" fill-rule="evenodd">
  <path d="m11.875 4.898c-0.021-3.099-2.145-4.898-5.785-4.898-3.468 0-5.613 1.778-5.613 4.638 0 1.929 1.018 3.142 3.098 3.684l3.923 1.04c1.993 0.52 2.903 1.322 2.903 2.557 0 0.845-0.455 1.712-1.127 2.189-0.627 0.433-1.625 0.672-2.903 0.672-1.712 0-2.882-0.412-3.64-1.323-0.585-0.693-0.845-1.452-0.824-2.426h-1.907c0.022 1.452 0.304 2.405 0.932 3.272 1.084 1.474 2.904 2.253 5.309 2.253 1.885 0 3.424-0.433 4.443-1.213 1.061-0.846 1.733-2.254 1.733-3.619 0-1.95-1.214-3.381-3.358-3.966l-3.966-1.061c-1.907-0.521-2.601-1.127-2.601-2.341 0-1.604 1.408-2.665 3.532-2.665 2.514 0 3.922 1.148 3.945 3.207h1.906z"/>
 </g>
 <g fill="#161413" transform="translate(119.4 170.25)">
  <path d="m18.15 10.4l-0.65 1.1-17.5-10.45v-0.75l0.75-0.3 17.4 10.4z"/>
 </g>
 <g fill="#161413" transform="translate(153.65 165.8)">
  <path d="m15.25 0l0.8 0.2 0.2 0.7-15.35 13.45s-0.9-1-0.9-1l15.25-13.35z"/>
 </g>
 <g fill="#161413" transform="translate(157 136.65)">
  <path d="m0 1.35l0.8-1.35 12.35 28.8s-0.45 0.55-0.45 0.55l-0.8-0.2-11.9-27.8z"/>
 </g>
 <g fill="#161413" transform="translate(153.25 143.05)">
  <path d="m0 0.5l1.2-0.5 9.1 21.15-1.2 0.5-9.1-21.15z"/>
 </g>
 <g fill="#161413" transform="translate(126.35 136.65)">
  <path d="m0.5 4.1l-0.5-0.6 0.25-0.7 31.2-2.8-0.8 1.35-30.15 2.75z"/>
 </g>
 <g fill="#161413" transform="translate(169.7 165.45)">
  <path d="m30.55 6.85l-0.25 1.25s-30.1-6.85-30.1-6.85l-0.2-0.7s0.45-0.55 0.45-0.55 30.1 6.85 30.1 6.85z"/>
 </g>
 <g fill="#161413" transform="translate(114.15 80.452)" fill-rule="evenodd">
  <path d="m12.353 0h-1.907v12.916l-8.256-12.916h-2.19v15.798h1.908v-12.807c0 0.0003 8.17 12.807 8.17 12.807h2.275v-15.798z"/>
 </g>
 <g fill="#161413" transform="translate(106.45 99.85)">
  <path d="m7.35 0l1.15 0.5504-7.35 15.3-0.75 0.05-0.4-0.65 7.35-15.25z"/>
 </g>
 <g fill="#161413" transform="translate(141.15 24.202)" fill-rule="evenodd">
  <path d="m12.353 0h-1.907v12.916l-8.256-12.916h-2.19v15.798h1.908v-12.807c0 0.0003 8.17 12.807 8.17 12.807h2.275v-15.798z"/>
 </g>
 <g fill="#161413" transform="translate(129.85 84.7)">
  <path d="m21.2 0l0.85 1.2002-21.95 2.3994-0.1-1.2998 21.2-2.2998z"/>
 </g>
 <g fill="#161413" transform="translate(151.05 57.1)">
  <path d="m13.2 0.1006l1.5-0.1006-13.85 28.801-0.85-1.2 13.2-27.5z"/>
 </g>
 <g fill="#161413" transform="translate(154.7 42.55)">
  <path d="m0 0.75l1.1-0.75 9.95 14.55-1.5 0.1-9.55-13.9z"/>
 </g>
 <g fill="#161413" transform="translate(115.85 30.75)">
  <path d="m0.85 3.5996l-0.85-1.1992 21.85-2.4004 0.15 1.2998s-21.15 2.2998-21.15 2.2998z"/>
 </g>
 <g fill="#161413" transform="translate(102 33.15)">
  <path d="m1.5 28.649l-1.5 0.151 13.85-28.8 0.85 1.1992s-13.2 27.45-13.2 27.45z"/>
 </g>
 <g fill="#161413" transform="translate(102 61.8)">
  <path d="m11.75 15l-1.1 0.75-10.65-15.6c0 0.0004 1.5-0.15 1.5-0.15l10.25 15z"/>
 </g>
 <g fill="#161413" transform="translate(152.15 3)">
  <path d="m8.15 0l1.2 0.5498-8.15 16.95-1.2-0.55 8.15-16.95z"/>
 </g>
 <metadata>
  <rdf:RDF>
   <cc:Work>
    <dc:format>image/svg+xml</dc:format>
    <dc:type rdf:resource="http://purl.org/dc/dcmitype/StillImage"/>
    <cc:license rdf:resource="http://creativecommons.org/licenses/publicdomain/"/>
    <dc:publisher>
     <cc:Agent rdf:about="http://openclipart.org/">
      <dc:title>Openclipart</dc:title>
     </cc:Agent>
    </dc:publisher>
   </cc:Work>
   <cc:License rdf:about="http://creativecommons.org/licenses/publicdomain/">
    <cc:permits rdf:resource="http://creativecommons.org/ns#Reproduction"/>
    <cc:permits rdf:resource="http://creativecommons.org/ns#Distribution"/>
    <cc:permits rdf:resource="http://creativecommons.org/ns#DerivativeWorks"/>
   </cc:License>
  </rdf:RDF>
 </metadata>
</svg>
